X:1
T:Clinton, CM
T:Clinton, CM
T:Jospeh Perry Holbrook, 1870
T:Public Domain Courtesy of the Cyber Hymnal™
C:Jospeh Perry Holbrook, 1870
Z:Public Domain
Z:Courtesy of the Cyber Hymnal™
%%score ( 1 2 ) ( 3 4 )
L:1/8
Q:1/4=150
M:3/2
K:G
V:1 treble 
V:2 treble 
V:3 bass 
V:4 bass 
V:1
 [DB]4 | [DB]2 [DA]2 [DG]4 [Dd]4 | [EG]2 [FA]2 [GB]4 [GB]4 | [Gc]2 [Dc]2 [DB]4 [Gd]4 | %4
 [FA]8 [DB]4 | [DB]2 [DA]2 [DG]4 [Gd]4 | [EA]2 [EB]2 [Ec]4 [Ee]4 | [EG]2 [_EA]2 B4 [FA]4 | G8 |] %9
V:2
 x4 | x12 | x12 | x12 | x12 | x12 | x12 | x4 (D2 G2) x4 | G8 |] %9
V:3
 [G,D]4 | [G,D]2 [G,C]2 [G,B,]4 [F,A,]4 | [E,B,]2 [D,D]2 [G,D]4 [G,D]4 | %3
 [E,C]2 [F,A,]2 [G,B,]4 [B,,D]4 | [D,D]8 [G,D]4 | [G,D]2 [G,C]2 [G,B,]4 [B,,G,]4 | %6
 [C,A,]2 [B,,^G,]2 [A,,A,]4 [C,A,]4 | [C,C]2 [C,C]2 (B,2 D2) [D,C]4 | [G,,B,]8 |] %9
V:4
 x4 | x12 | x12 | x12 | x12 | x12 | x12 | x4 D,4 x4 | x8 |] %9

